.files/icons/devices/iPhone-back.svg

<svg fill="none" height="48" viewBox="0 0 48 48" width="48" xmlns="http://www.w3.org/2000/svg"><path clip-rule="evenodd" d="m14 4c-1.1046 0-2 .89543-2 2v36c0 1.1046.8954 2 2 2h20c1.1046 0 2-.8954 2-2v-36c0-1.10457-.8954-2-2-2zm1 2c-.5523 0-1 .44772-1 1v2c0 .55228.4477 1 1 1h6c.5523 0 1-.44772 1-1v-2c0-.55228-.4477-1-1-1z" fill="#000" fill-rule="evenodd"/></svg>

<svg width="48" height="48" viewBox="0 0 48 48" fill="none" xmlns="http://www.w3.org/2000/svg">
<path fill-rule="evenodd" clip-rule="evenodd" d="M14 4C12.8954 4 12 4.89543 12 6V42C12 43.1046 12.8954 44 14 44H34C35.1046 44 36 43.1046 36 42V6C36 4.89543 35.1046 4 34 4H14ZM15 6C14.4477 6 14 6.44772 14 7V9C14 9.55228 14.4477 10 15 10H21C21.5523 10 22 9.55228 22 9V7C22 6.44772 21.5523 6 21 6H15Z" fill="black"/>
</svg>
